X:6
T:Kilnamona Barndance
R:barndance
D:Martin Hayes: Under the Moon
Z:id:hn-barndance-6
M:C|
L:1/8
K:G
dGBd GABd | d2c2 A3B | c2A2 e3e | e2d2 B4 |
dGBd GABd | d2c2 A3B | c2A2 e2d2 | G4 G4 :|
|: b4 bagb | a3a agef | gage d2Bd | e2a2 a2ga |
b3b bagb | a3a agef | gage d2Bd |1 e2g2 g4 :|2 e2g2 g4 ||
<end>
<start>
